public/GirlComptr.svg

<svg fill="none" xmlns="http://www.w3.org/2000/svg" viewBox="0 0 608 453">
  <g clip-path="url(#clip0)">
    <path d="M301.056 453c166.268 0 301.055-9.68 301.055-21.622 0-11.941-134.787-21.622-301.055-21.622C134.787 409.756 0 419.437 0 431.378 0 443.32 134.787 453 301.056 453z" fill="#E6E6E6"/>
    <path d="M536.256 443.487c-49.089-8.836-102.771-7.367-159.08 0 25.665-21.911 47.815-43.822 22.15-65.732 50.063 10.444 57.075 9.387 112.766 0-12.917 21.91 11.247 43.821 24.164 65.732z" fill="#6C63FF"/>
    <path opacity=".2" d="M536.256 443.487c-49.089-8.836-102.771-7.367-159.08 0 25.665-21.911 47.815-43.822 22.15-65.732 50.063 10.444 57.075 9.387 112.766 0-12.917 21.91 11.247 43.821 24.164 65.732z" fill="#DAC5FF"/>
    <path d="M524.281 434.137c-41.699-7.052-87.3-5.88-135.133 0 21.802-17.489 40.618-34.979 18.816-52.468 42.527 8.337 48.484 7.493 95.791 0-10.973 17.489 9.554 34.979 20.526 52.468z" fill="#BF9BFF"/>
    <path d="M508.398 405.958c12.271 0 22.219-10.06 22.219-22.469s-9.948-22.468-22.219-22.468-22.218 10.059-22.218 22.468 9.947 22.469 22.218 22.469z" fill="#2F2E41"/>
    <path d="M407.537 357.429l15.395 2.595 7.698 22.487-22.237 13.839-25.659-38.921h24.803z" fill="#A0616A"/>
    <path d="M451.156 392.024c19.839 0 35.921-16.263 35.921-36.325s-16.082-36.325-35.921-36.325-35.922 16.263-35.922 36.325 16.083 36.325 35.922 36.325z" fill="#A0616A"/>
    <path d="M252.731 223.371s-87.238 9.513-102.632 7.784c-15.395-1.73-22.238-3.46-22.238-3.46s-10.263 13.838-5.131 19.893a37.138 37.138 0 0010.263 8.649s9.408-2.595 16.25 0c6.842 2.594 76.119 13.838 88.093 3.459 11.974-10.379 15.395-36.325 15.395-36.325z" fill="#2F2E41"/>
    <path d="M258.72 416.242s-57.303-16.433-67.566-89.083v-6.919s-11.338 20.114-15.395 24.216c-4.704 4.757-21.382 47.57-20.526 51.894.855 4.324 0 6.054 0 6.054l-24.803-2.594v-7.785s13.256-40.217 14.112-49.731c.855-9.514 32.928-75.678 32.928-75.678s11.973-25.082 32.5 0c20.526 25.082 22.237 42.38 22.237 42.38l26.513 51.893v55.353zM130.43 225.1l-27.369-9.513s-25.658-19.028-19.671 0c5.987 19.027 33.356 60.542 41.053 56.218 7.697-4.325 16.955-15.059 14.892-16.611-2.063-1.552-15.747-12.796-8.905-30.094zM133.738 386.918l-22.093 10.912s-26.717 4.156-11.817 11.95c14.9 7.794 56.004 16.107 58.059 8.833 2.055-7.274 1.24-19.347-.922-19.026-2.161.321-17.061 1.88-23.227-12.669z" fill="#2F2E41"/>
    <path d="M247.602 359.159s-11.118 48.434 7.697 58.812c18.816 10.379 150.528 12.109 160.792-6.919 10.263-19.027 5.131-19.027 5.131-19.027l-27.369-31.137 22.238-1.729s0-6.919-7.698-7.784c-7.697-.865-31.645-9.514-52.171-3.46-20.527 6.054-32.501-12.108-32.501-12.108l-76.119 23.352z" fill="#575A89"/>
    <path d="M233.063 207.804l-14.54 80.435 100.068-12.108 17.96-72.652-103.488 4.325z" fill="#3F3D56"/>
    <path d="M236.056 210.83l-11.974 71.786 91.086-10.811 17.533-65.3-96.645 4.325z" fill="#fff"/>
    <path d="M221.944 289.103l-3.421-.865-1.711 3.459 27.369 76.975 2.574-.995.847-5.058-25.658-73.516z" fill="#B3B3B3"/>
    <path d="M218.523 287.373l27.369 80.435L349.38 352.24l-30.789-76.11-100.068 11.243z" fill="#D0CDE1"/>
    <path d="M232.207 284.779v4.324l76.119-8.649-.855-4.324-75.264 8.649zM233.918 293.427l11.974 33.73 77.83-9.513-13.685-32.001-76.119 7.784z" fill="#3F3D56"/>
    <path d="M331.42 340.997l-2.566-6.919s-19.671-34.595-29.935-27.676c-10.263 6.919 21.382 40.65 21.382 40.65h10.263l.856-6.055zM266.418 346.186l-2.566-10.379s-6.842-32.001 5.132-30.271c11.974 1.73 15.395 32.001 15.395 32.001l-.855 6.919-17.106 1.73z" fill="#A0616A"/>
    <path d="M286.946 341.862s-22.237-3.459-23.093 1.73c-.855 5.189-5.131 83.029 16.25 85.624 21.382 2.595 127.436 13.838 116.317-12.973-11.118-26.812-28.224-23.352-28.224-23.352l-72.698 7.784-8.552-58.813zM354.081 351.807l-22.664-16-14.968 11.676 18.816 20.757 18.816-16.433z" fill="#575A89"/>
    <path opacity=".2" d="M293.359 367.375l3.421 32.866 59.014-3.46-51.317-.865-11.118-28.541z" fill="#000"/>
    <path d="M468.889 405.544c23.617 0 42.763-19.361 42.763-43.244 0-23.884-19.146-43.245-42.763-43.245-23.618 0-42.764 19.361-42.764 43.245 0 23.883 19.146 43.244 42.764 43.244z" fill="#2F2E41"/>
    <path d="M248.883 235.912l53.027-1.867 5.131-19.755-54.737 1.67-3.421 19.952z" fill="#6C63FF"/>
    <path d="M235.199 247.156l80.395-2.595.855-3.46-80.395 2.863-.855 3.192zM233.488 255.806l80.396-2.595.855-3.46-80.396 2.862-.855 3.193zM232.633 262.723l80.395-2.594.856-3.46-80.396 2.862-.855 3.192z" fill="#E6E6E6"/>
  </g>
  <defs>
    <clipPath id="clip0">
      <path d="M0 0h608v453H0V0z" fill="#fff"/>
    </clipPath>
  </defs>
</svg>

<svg width="608" height="453" viewBox="0 0 608 453" fill="none" xmlns="http://www.w3.org/2000/svg">
<g clip-path="url(#clip0)">
<path d="M301.056 453C467.324 453 602.111 443.32 602.111 431.378C602.111 419.437 467.324 409.756 301.056 409.756C134.787 409.756 0 419.437 0 431.378C0 443.32 134.787 453 301.056 453Z" fill="#E6E6E6"/>
<path d="M536.255 443.487C487.166 434.651 433.484 436.12 377.175 443.487C402.84 421.576 424.99 399.665 399.325 377.755C449.388 388.199 456.4 387.142 512.091 377.755C499.174 399.665 523.338 421.576 536.255 443.487Z" fill="#6C63FF"/>
<path opacity="0.2" d="M536.255 443.487C487.166 434.651 433.484 436.12 377.175 443.487C402.84 421.576 424.99 399.665 399.325 377.755C449.388 388.199 456.4 387.142 512.091 377.755C499.174 399.665 523.338 421.576 536.255 443.487Z" fill="#DAC5FF"/>
<path d="M524.281 434.138C482.582 427.085 436.981 428.257 389.148 434.138C410.95 416.648 429.766 399.159 407.964 381.669C450.491 390.006 456.448 389.162 503.755 381.669C492.782 399.159 513.309 416.648 524.281 434.138Z" fill="#BF9BFF"/>
<path d="M508.398 405.958C520.669 405.958 530.617 395.898 530.617 383.489C530.617 371.08 520.669 361.021 508.398 361.021C496.127 361.021 486.18 371.08 486.18 383.489C486.18 395.898 496.127 405.958 508.398 405.958Z" fill="#2F2E41"/>
<path d="M407.536 357.429L422.931 360.024L430.629 382.511L408.392 396.35L382.733 357.429H406.681H407.536Z" fill="#A0616A"/>
<path d="M451.156 392.024C470.995 392.024 487.077 375.761 487.077 355.699C487.077 335.637 470.995 319.374 451.156 319.374C431.317 319.374 415.234 335.637 415.234 355.699C415.234 375.761 431.317 392.024 451.156 392.024Z" fill="#A0616A"/>
<path d="M252.732 223.371C252.732 223.371 165.494 232.884 150.1 231.155C134.705 229.425 127.862 227.695 127.862 227.695C127.862 227.695 117.599 241.533 122.731 247.588C125.605 251.076 129.083 254.007 132.994 256.237C132.994 256.237 142.402 253.642 149.244 256.237C156.086 258.831 225.363 270.075 237.337 259.696C249.311 249.317 252.732 223.371 252.732 223.371Z" fill="#2F2E41"/>
<path d="M258.719 416.242C258.719 416.242 201.416 399.809 191.153 327.159V320.24C191.153 320.24 179.815 340.354 175.758 344.456C171.054 349.213 154.376 392.026 155.232 396.35C156.087 400.674 155.232 402.404 155.232 402.404L130.429 399.81V392.025C130.429 392.025 143.685 351.808 144.541 342.294C145.396 332.78 177.469 266.616 177.469 266.616C177.469 266.616 189.442 241.534 209.969 266.616C230.495 291.698 232.206 308.996 232.206 308.996L258.719 360.889L258.719 416.242Z" fill="#2F2E41"/>
<path d="M130.429 225.101L103.06 215.587C103.06 215.587 77.4021 196.559 83.389 215.587C89.3759 234.614 116.745 276.129 124.442 271.805C132.139 267.48 141.397 256.746 139.334 255.194C137.271 253.642 123.587 242.398 130.429 225.101Z" fill="#2F2E41"/>
<path d="M133.736 386.918L111.643 397.83C111.643 397.83 84.9257 401.986 99.8258 409.78C114.726 417.574 155.83 425.887 157.885 418.613C159.94 411.339 159.125 399.266 156.963 399.587C154.802 399.908 139.902 401.467 133.736 386.918Z" fill="#2F2E41"/>
<path d="M247.601 359.159C247.601 359.159 236.483 407.593 255.299 417.971C274.114 428.35 405.826 430.08 416.09 411.052C426.353 392.025 421.221 392.025 421.221 392.025L393.853 360.888L416.09 359.159C416.09 359.159 416.09 352.24 408.392 351.375C400.695 350.51 376.747 341.861 356.221 347.915C335.694 353.969 323.72 335.807 323.72 335.807L247.601 359.159Z" fill="#575A89"/>
<path d="M233.061 207.804L218.521 288.239L318.589 276.131L336.549 203.479L233.061 207.804Z" fill="#3F3D56"/>
<path d="M236.055 210.83L224.081 282.615L315.167 271.805L332.7 206.505L236.055 210.83Z" fill="white"/>
<path d="M221.943 289.103L218.522 288.238L216.812 291.697L244.18 368.672L246.754 367.677L247.601 362.619L221.943 289.103Z" fill="#B3B3B3"/>
<path d="M218.521 287.373L245.89 367.808L349.378 352.24L318.589 276.13L218.521 287.373Z" fill="#D0CDE1"/>
<path d="M232.207 284.778V289.103L308.326 280.454L307.471 276.13L232.207 284.778Z" fill="#3F3D56"/>
<path d="M233.916 293.427L245.89 327.157L323.72 317.644L310.036 285.643L233.916 293.427Z" fill="#3F3D56"/>
<path d="M331.418 340.997L328.852 334.078C328.852 334.078 309.181 299.483 298.917 306.402C288.654 313.321 320.299 347.052 320.299 347.052H330.562L331.418 340.997Z" fill="#A0616A"/>
<path d="M266.417 346.186L263.852 335.807C263.852 335.807 257.009 303.806 268.983 305.536C280.957 307.266 284.378 337.537 284.378 337.537L283.523 344.456L266.417 346.186Z" fill="#A0616A"/>
<path d="M286.944 341.862C286.944 341.862 264.707 338.403 263.851 343.592C262.996 348.781 258.72 426.621 280.102 429.216C301.483 431.811 407.537 443.054 396.418 416.243C385.3 389.431 368.194 392.891 368.194 392.891L295.496 400.675L286.944 341.862Z" fill="#575A89"/>
<path d="M354.083 351.807L331.419 335.807L316.451 347.483L335.267 368.24L354.083 351.807Z" fill="#575A89"/>
<path opacity="0.2" d="M293.358 367.375L296.779 400.241L355.793 396.781L304.476 395.917L293.358 367.375Z" fill="black"/>
<path d="M468.888 405.544C492.505 405.544 511.651 386.183 511.651 362.3C511.651 338.416 492.505 319.055 468.888 319.055C445.27 319.055 426.124 338.416 426.124 362.3C426.124 386.183 445.27 405.544 468.888 405.544Z" fill="#2F2E41"/>
<path d="M248.884 235.912L301.911 234.046L307.042 214.29L252.305 215.961L248.884 235.912Z" fill="#6C63FF"/>
<path d="M235.2 247.156L315.595 244.561L316.45 241.101L236.055 243.964L235.2 247.156Z" fill="#E6E6E6"/>
<path d="M233.489 255.805L313.885 253.21L314.74 249.751L234.344 252.613L233.489 255.805Z" fill="#E6E6E6"/>
<path d="M232.634 262.723L313.029 260.129L313.885 256.669L233.489 259.531L232.634 262.723Z" fill="#E6E6E6"/>
</g>
<defs>
<clipPath id="clip0">
<path d="M0 0H608V453H0V0Z" fill="white"/>
</clipPath>
</defs>
</svg>
